X:1
T:Fill Thou My Life, O Lord, My God
T:Text: Horatius Bonar, 1863, alt. Tune: Gesangbuch, Wittenberg, 1784
T:CMD ELLACOMBE www.hymnary.org/text/fill_thou_my_life_o_lord_my_god
T:Fill Thou My Life, O Lord, My God
T:This hymn is in the public domain.  You may freely use this score for personal and congregational worship.  If you reproduce the score, please credit Hymnary.org as the source. 
T:This hymn is in the public domain.  You may freely use this score for personal and congregational worship.  If you reproduce the score, please credit Hymnary.org as the source. 
Z:This hymn is in the public domain.  You may freely use this score for personal and congregational worship.  If you reproduce the score, please credit Hymnary.org as the source.
%%score ( 1 2 ) ( 3 4 )
L:1/8
M:4/4
K:Ab
V:1 treble nm="SOPRANO ALTO" snm="S. A."
V:2 treble 
V:3 bass nm="TENOR BASS" snm="T. B."
V:4 bass 
V:1
"^1""^2""^3" E2 | A2 GF E2 A2 | C2 D2 E2 E2 | FG A2 B2 B2 | c6 | E2 | A2 GF E2 A2 | C2 D2 E2 E2 | %8
w: Fill|thou my * life, O|Lord, my God, in|e- * very part with|praise,|that|my whole _ be- ing|may pro- claim thy|
w: Praise|in the * com- mon|words I speak, life's|com- * mon looks and|tones,|in|fel- low- * ship en-|joyed at home with|
w: So|shall each _ fear, each|fret, each care be|turned _ in- to a|song,|and|ev- ery * wind- ing|of the way the|
 FG A2 A2 G2 | A6 | AB | c2 B2 c2 d2 | B2 GA B2 AB | c2 B2 c2 d2 | B6 |1 E2 | A2 GF E2 A2 | %17
w: be- * ing and thy|ways.|Not *|for the lip of|praise a- * lone, nor *|e'en the prais- ing|heart|I|ask, but * for a|
w: my * be- lov- ed|ones,|en- *|dur- ing wrong, re-|proach, or * loss with *|sweet and stead- fast|will,|for-|giv- ing * free- ly|
w: ech- * o shall pro-|long.|So *|shall no part of|day or * night from _|sa- cred- ness be|free,|but|all my * life, in|
 C2 D2 E2 E2 | FG A2 A2 G2 | A6 x2 |] %20
w: life made up of|praise _ in e- very|part.|
w: those who hate, re-|turn- * ing good for|ill.|
w: ev- ery step, be|fel- * low- ship with|thee.|
V:2
 E2 | A2 GF E2 E2 | C2 B,A, B,2 C2 | D2 E2 F2 E2 | E6 | E2 | A2 GF E2 E2 | C2 B,A, B,2 C2 | %8
 D2 CD E2 E2 | E6 | CD | E2 E2 E2 F2 | E2 E2 E2 CD | E2 E2 E2 F2 | E6 |1 E2 | A2 GF E2 E2 | %17
 C2 B,A, B,2 C2 | D2 CD E2 E2 | E6 x2 |] %20
V:3
 E,2 | A,2 G,F, E,2 A,2 | A,2 A,2 G,2 A,2 | A,2 A,2 A,2 G,2 | A,6 | E,2 | A,2 G,F, E,2 A,2 | %7
 A,2 A,2 G,2 A,2 | A,2 A,2 B,2 B,2 | C6 | A,2 | A,2 B,2 A,2 A,2 | G,2 E,F, G,2 A,2 | %13
 A,2 B,2 A,2 A,2 | G,6 |1 E,2 | A,2 G,F, E,2 A,2 | A,2 A,2 G,2 A,2 | A,2 A,2 B,2 B,2 | C6 x2 |] %20
V:4
 E,2 | A,2 G,F, E,2 C,2 | F,2 F,2 E,2 A,,2 | D,2 C,2 D,2 E,2 | A,,6 | E,2 | A,2 G,F, E,2 C,2 | %7
 F,2 F,2 E,2 A,,2 | D,2 F,2 E,2 E,2 | A,,6 | A,2 | A,2 G,2 A,2 D,2 | E,2 E,2 E,2 A,2 | %13
 A,2 G,2 A,2 D,2 | E,6 |1 E,2 | A,2 G,F, E,2 C,2 | F,2 F,2 E,2 A,,2 | D,2 F,2 E,2 E,2 | A,,6 x2 |] %20

